X: 1058
T: A Theater Tune.
%R: air, waltz, jig
B: Henry Playford "Apollo's Banquet", London 1687 (5th Edition)
F: https://archive.org/details/apollosbanquetco01rugg
Z: 2017 John Chambers <jc:trillian.mit.edu>
M: 6/4
L: 1/8
K: D
% - - - - - - - - - -
|:\
f2f3g e2e2f>e | d2d3e c2c4 |\
a2a3a b2d3d | cdd3c d2d4 ::\
z2a2f2 d4b2 | a2f4 g4g2 |
z2B2e2 c4d2 | e2e4 d4d2 ::\
z2f2g2 e3dc2 | d>ee3f f4f2 |\
z2g2a2 b2e3f | ^d2g3f f4e2 |\
a2f2g2 d4b2 |
a2f4 g4g2 |\
z2B2e2 c4d2 | e3dc2 e4d2 |\
c2c2g2 B2B2f2 | g2g3f e4e2 |\
a2f2g2 e2(dc)f2 | B2c3d B4A2 |]
% - - - - - - - - - -

%%sep 1 1 500
%%sep 1 1 500

